img/source-icon/nintendo-switch.svg

<svg width="72" height="72" viewBox="0 0 72 72" fill="none" xmlns="http://www.w3.org/2000/svg">
<path d="M30.12 61.2H21.36C18.57 61.2 15.9 60 13.92 58.08C12 56.1 10.8 53.43 10.8 50.64V21.36C10.8 18.57 12 15.9 13.92 13.92C15.9 12 18.57 10.86 21.36 10.86H30.12V61.2ZM21.36 6C17.2863 6 13.3794 7.61828 10.4988 10.4988C7.61828 13.3794 6 17.2863 6 21.36V50.64C6 59.13 12.87 66 21.36 66H34.95V6H21.36ZM15.33 24C15.33 27.12 17.85 29.64 21 29.64C24.09 29.64 26.61 27.12 26.61 24C26.61 20.88 24.09 18.36 21 18.36C17.85 18.36 15.33 20.88 15.33 24ZM52.83 33C56.16 33 58.86 35.67 58.86 39C58.86 42.36 56.16 45 52.83 45C49.5 45 46.74 42.36 46.74 39C46.74 35.67 49.5 33 52.83 33ZM50.64 66C54.7137 66 58.6206 64.3817 61.5012 61.5012C64.3817 58.6206 66 54.7137 66 50.64V21.36C66 12.87 59.13 6 50.64 6H40.95V66H50.64Z" fill="#52525A"/>
</svg>

<svg width="72" height="72" fill="none" xmlns="http://www.w3.org/2000/svg"><path d="M30.12 61.2h-8.76c-2.79 0-5.46-1.2-7.44-3.12-1.92-1.98-3.12-4.65-3.12-7.44V21.36c0-2.79 1.2-5.46 3.12-7.44 1.98-1.92 4.65-3.06 7.44-3.06h8.76V61.2zM21.36 6A15.36 15.36 0 0 0 6 21.36v29.28C6 59.13 12.87 66 21.36 66h13.59V6H21.36zm-6.03 18A5.64 5.64 0 0 0 21 29.64c3.09 0 5.61-2.52 5.61-5.64 0-3.12-2.52-5.64-5.61-5.64A5.64 5.64 0 0 0 15.33 24zm37.5 9c3.33 0 6.03 2.67 6.03 6 0 3.36-2.7 6-6.03 6s-6.09-2.64-6.09-6c0-3.33 2.76-6 6.09-6zm-2.19 33A15.36 15.36 0 0 0 66 50.64V21.36C66 12.87 59.13 6 50.64 6h-9.69v60h9.69z" fill="#52525A"/></svg>
